packages/fxa-payments-server/src/images/mastercard.svg

<svg width="38" height="24" viewBox="0 0 38 24" fill="none" xmlns="http://www.w3.org/2000/svg">
<g clip-path="url(#clip0)">
<path d="M2.35994 0H35.9599C37.0204 0 37.8799 0.859632 37.8799 1.92V22.08C37.8799 23.1404 37.0204 24 35.9599 24H2.35994C1.29957 24 0.439941 23.1404 0.439941 22.08V1.92C0.439941 0.859632 1.29957 0 2.35994 0Z" fill="#16366F"/>
<path d="M21.9924 12C21.9924 16.7589 18.1347 20.616 13.3759 20.616C8.61723 20.616 4.75995 16.7587 4.75995 12C4.75995 7.24162 8.61732 3.384 13.3759 3.384C18.1345 3.384 21.9924 7.24176 21.9924 12Z" fill="#D9222A"/>
<path d="M24.9435 3.3838C22.7173 3.3838 20.6887 4.22841 19.1595 5.61417C18.848 5.89684 18.5572 6.20155 18.2895 6.52598H20.0303C20.2687 6.81576 20.488 7.1206 20.6872 7.4386H17.6327C17.449 7.73241 17.2833 8.03712 17.1363 8.35099H21.1833C21.3222 8.64787 21.444 8.95243 21.5481 9.26318H16.7715C16.6712 9.56246 16.5876 9.86707 16.5211 10.1756H21.7982C21.9273 10.7751 21.9923 11.3867 21.9922 12C21.9922 12.9568 21.836 13.8774 21.548 14.737H16.7714C16.8753 15.0479 16.997 15.3526 17.136 15.6494H21.1832C21.0361 15.9634 20.8703 16.2681 20.6866 16.5621H17.6326C17.8319 16.8803 18.0516 17.1851 18.2894 17.4739H20.0298C19.7625 17.7989 19.4716 18.1039 19.1596 18.3864C20.6889 19.7721 22.7172 20.6162 24.9436 20.6162C29.7022 20.6162 33.5601 16.7589 33.5601 12.0002C33.5601 7.242 29.7023 3.38424 24.9436 3.38424" fill="#EE9F2D"/>
<path d="M32.4118 16.8029C32.4118 16.6492 32.5362 16.5244 32.69 16.5244C32.8438 16.5244 32.9682 16.6492 32.9682 16.8029C32.9682 16.9564 32.8438 17.0812 32.69 17.0812C32.5363 17.0812 32.4118 16.9565 32.4118 16.8029ZM32.69 17.0145C32.8069 17.0144 32.9016 16.9197 32.9016 16.8029C32.9016 16.6861 32.807 16.5915 32.6902 16.5915H32.69C32.5734 16.5913 32.4788 16.6857 32.4786 16.8023V16.8029C32.4785 16.9197 32.573 17.0144 32.6898 17.0145C32.6898 17.0145 32.6899 17.0145 32.69 17.0145ZM32.6524 16.9252H32.5954V16.6807H32.6986C32.7202 16.6807 32.7422 16.6807 32.7612 16.6929C32.781 16.7062 32.7922 16.7298 32.7922 16.7542C32.7922 16.7816 32.776 16.8072 32.7498 16.8172L32.7948 16.9252H32.7317L32.6943 16.8284H32.6525V16.9252H32.6524ZM32.6524 16.7865H32.684C32.6958 16.7865 32.7082 16.7874 32.7188 16.7817C32.7282 16.7757 32.733 16.7644 32.733 16.7536C32.733 16.7443 32.7273 16.7335 32.7192 16.7289C32.7093 16.7226 32.6935 16.724 32.6828 16.724H32.6524V16.7865ZM11.3644 12.9434C11.2663 12.9321 11.2231 12.929 11.1556 12.929C10.6255 12.929 10.3571 13.1109 10.3571 13.4698C10.3571 13.6912 10.4881 13.8321 10.6924 13.8321C11.0735 13.8321 11.3481 13.4692 11.3644 12.9434ZM12.0447 14.5272H11.2696L11.2875 14.1588C11.0511 14.45 10.7356 14.5884 10.3071 14.5884C9.80007 14.5884 9.45246 14.1924 9.45246 13.6174C9.45246 12.7522 10.0571 12.2475 11.0949 12.2475C11.2009 12.2475 11.3368 12.2571 11.476 12.2748C11.5051 12.1576 11.5127 12.1075 11.5127 12.0444C11.5127 11.8088 11.3497 11.721 10.9127 11.721C10.4551 11.7158 10.0777 11.83 9.92267 11.881C9.93246 11.822 10.0523 11.0814 10.0523 11.0814C10.5184 10.9448 10.8259 10.8934 11.1719 10.8934C11.9751 10.8934 12.4005 11.254 12.3997 11.9356C12.4012 12.1182 12.3711 12.3436 12.3239 12.6398C12.2427 13.1549 12.0685 14.2582 12.0447 14.5272ZM9.06107 14.5272H8.12564L8.66147 11.1674L7.46507 14.5272H6.82763L6.74891 11.1866L6.18567 14.5272H5.31006L6.04148 10.1566H7.38644L7.46804 12.603L8.28846 10.1566H9.78447L9.06107 14.5272ZM26.1001 12.9434C26.0023 12.9321 25.9589 12.929 25.8917 12.929C25.3617 12.929 25.0933 13.1109 25.0933 13.4698C25.0933 13.6912 25.2241 13.8321 25.4284 13.8321C25.8095 13.8321 26.0843 13.4692 26.1001 12.9434ZM26.7809 14.5272H26.0059L26.0235 14.1588C25.7871 14.45 25.4714 14.5884 25.0433 14.5884C24.5361 14.5884 24.1889 14.1924 24.1889 13.6174C24.1889 12.7522 24.7931 12.2475 25.8311 12.2475C25.9371 12.2475 26.0728 12.2571 26.2119 12.2748C26.2409 12.1576 26.2485 12.1075 26.2485 12.0444C26.2485 11.8088 26.0857 11.721 25.6487 11.721C25.1911 11.7158 24.8141 11.83 24.6585 11.881C24.6683 11.822 24.7885 11.0814 24.7885 11.0814C25.2547 10.9448 25.5619 10.8934 25.9075 10.8934C26.7111 10.8934 27.1365 11.254 27.1357 11.9356C27.1372 12.1182 27.107 12.3436 27.0599 12.6398C26.9791 13.1549 26.8045 14.2582 26.7809 14.5272ZM16.2022 14.4732C15.9461 14.5539 15.7466 14.5884 15.5302 14.5884C15.0519 14.5884 14.791 14.3136 14.791 13.8076C14.7842 13.6506 14.8598 13.2374 14.9191 12.8602C14.9731 12.5282 15.3247 10.4348 15.3247 10.4348H16.2545L16.146 10.9728H16.7076L16.5807 11.827H16.0171C15.9091 12.503 15.7553 13.345 15.7535 13.4566C15.7535 13.6398 15.8513 13.7198 16.0737 13.7198C16.1803 13.7198 16.2628 13.7089 16.3259 13.6862L16.2022 14.4732ZM19.0529 14.4444C18.7335 14.542 18.4253 14.5893 18.0987 14.5884C17.058 14.5874 16.5154 14.0438 16.5154 13.0029C16.5154 11.7879 17.2056 10.8934 18.1426 10.8934C18.9091 10.8934 19.3987 11.3942 19.3987 12.1797C19.3987 12.4402 19.3651 12.6946 19.2842 13.0538H17.4326C17.37 13.5694 17.6999 13.7842 18.2407 13.7842C18.5736 13.7842 18.8738 13.7156 19.2075 13.5604L19.0529 14.4444ZM18.5304 12.3372C18.5355 12.2632 18.629 11.7028 18.0977 11.7028C17.8015 11.7028 17.5898 11.9286 17.5035 12.3372H18.5304ZM12.6062 12.0964C12.6062 12.546 12.8242 12.856 13.3186 13.0889C13.6974 13.2669 13.756 13.3197 13.756 13.481C13.756 13.7026 13.589 13.8026 13.2188 13.8026C12.9398 13.8026 12.6802 13.7591 12.3808 13.6625C12.3808 13.6625 12.2578 14.4458 12.2522 14.4833C12.4648 14.5297 12.6544 14.5726 13.2256 14.5884C14.2126 14.5884 14.6684 14.2126 14.6684 13.4004C14.6684 12.912 14.4776 12.6254 14.009 12.4101C13.6168 12.2301 13.5718 12.1898 13.5718 12.0238C13.5718 11.8317 13.7272 11.7336 14.0296 11.7336C14.2132 11.7336 14.464 11.7532 14.7016 11.7871L14.8348 10.9627C14.5926 10.9243 14.2254 10.8934 14.0116 10.8934C12.9652 10.8934 12.603 11.44 12.6062 12.0964ZM23.6025 10.9868C23.8623 10.9868 24.1046 11.055 24.4383 11.223L24.5913 10.2744C24.4543 10.2207 23.9719 9.90483 23.5634 9.90483C22.9373 9.90483 22.4082 10.2154 22.036 10.728C21.4931 10.5482 21.27 10.9116 20.9964 11.2736L20.7534 11.3302C20.7718 11.2111 20.7884 11.0926 20.7828 10.9728H19.9238C19.8064 12.0729 19.5984 13.1871 19.4356 14.2884L19.3932 14.5273H20.329C20.4852 13.5124 20.5708 12.8626 20.6228 12.4229L20.9752 12.2268C21.0278 12.031 21.1926 11.9649 21.5232 11.9728C21.4787 12.2132 21.4565 12.4571 21.4568 12.7017C21.4568 13.8645 22.0842 14.5884 23.0912 14.5884C23.3506 14.5884 23.5732 14.5543 23.9178 14.4609L24.0825 13.4644C23.7724 13.6171 23.5179 13.6889 23.2875 13.6889C22.7438 13.6889 22.4148 13.2875 22.4148 12.624C22.4147 11.6616 22.9041 10.9868 23.6025 10.9868Z" fill="black"/>
<path d="M9.33005 14.2675H8.39448L8.93065 10.9081L7.73424 14.2675H7.09671L7.01789 10.9273L6.45471 14.2675H5.57904L6.31047 9.89751H7.65543L7.69325 12.6029L8.60065 9.89751H10.0535L9.33005 14.2675Z" fill="white"/>
<path d="M31.5209 10.1568L31.3136 11.4196C31.0577 11.083 30.783 10.8394 30.4202 10.8394C29.9481 10.8394 29.5185 11.1972 29.2374 11.7238C28.8458 11.6426 28.4407 11.5048 28.4407 11.5048L28.4405 11.508C28.4721 11.2136 28.4847 11.034 28.4819 10.973H27.6227C27.5057 12.073 27.2977 13.1872 27.1351 14.2886L27.0923 14.5274H28.0279C28.1543 13.7068 28.2511 13.0254 28.3223 12.485C28.6419 12.1962 28.8019 11.9442 29.1249 11.961C28.9819 12.3069 28.8981 12.7052 28.8981 13.1138C28.8981 14.0024 29.3477 14.5886 30.0277 14.5886C30.3705 14.5886 30.6335 14.4704 30.8901 14.1964L30.8463 14.5269H31.7311L32.4435 10.1568H31.5209ZM30.3511 13.706C30.0327 13.706 29.8719 13.4704 29.8719 13.0054C29.8719 12.3068 30.1729 11.8114 30.5973 11.8114C30.9187 11.8114 31.0927 12.0564 31.0927 12.5077C31.0927 13.2124 30.7869 13.706 30.3511 13.706Z" fill="black"/>
<path d="M11.6331 12.6845C11.5351 12.6731 11.4917 12.6701 11.4245 12.6701C10.8943 12.6701 10.6261 12.8519 10.6261 13.2109C10.6261 13.4319 10.7571 13.5731 10.9611 13.5731C11.3425 13.5731 11.6171 13.2103 11.6331 12.6845ZM12.3137 14.2677H11.5387L11.5563 13.8999C11.3201 14.1905 11.0043 14.3295 10.5761 14.3295C10.0689 14.3295 9.7215 13.9335 9.7215 13.3585C9.7215 12.4929 10.3259 11.9885 11.3639 11.9885C11.4699 11.9885 11.6059 11.9981 11.7449 12.0159C11.7739 11.8987 11.7815 11.8485 11.7815 11.7851C11.7815 11.5495 11.6187 11.4621 11.1817 11.4621C10.7239 11.4569 10.3467 11.5711 10.1915 11.6215C10.2013 11.5627 10.3211 10.8229 10.3211 10.8229C10.7871 10.6857 11.0949 10.6342 11.4405 10.6342C12.2439 10.6342 12.6695 10.9951 12.6687 11.6761C12.6701 11.8594 12.6397 12.0847 12.5927 12.3805C12.5117 12.8953 12.3373 13.9993 12.3137 14.2677ZM24.8599 10.0153L24.7067 10.9641C24.3731 10.7963 24.1307 10.7279 23.8712 10.7279C23.1727 10.7279 22.6832 11.4027 22.6832 12.365C22.6832 13.0284 23.0123 13.4297 23.556 13.4297C23.7864 13.4297 24.0406 13.3581 24.3506 13.2052L24.1864 14.2012C23.8416 14.2952 23.6192 14.3295 23.3595 14.3295C22.3527 14.3295 21.7251 13.6054 21.7251 12.4426C21.7251 10.8802 22.592 9.78825 23.8318 9.78825C24.2401 9.7883 24.7227 9.96148 24.8599 10.0153ZM26.3691 12.6845C26.2712 12.6731 26.228 12.6701 26.1605 12.6701C25.6305 12.6701 25.3621 12.8519 25.3621 13.2109C25.3621 13.4319 25.4931 13.5731 25.6973 13.5731C26.0783 13.5731 26.3531 13.2103 26.3691 12.6845ZM27.0497 14.2677H26.2745L26.2923 13.8999C26.0559 14.1905 25.7403 14.3295 25.3121 14.3295C24.8051 14.3295 24.4575 13.9335 24.4575 13.3585C24.4575 12.4929 25.0621 11.9885 26.0997 11.9885C26.2059 11.9885 26.3417 11.9981 26.4809 12.0159C26.5097 11.8987 26.5175 11.8485 26.5175 11.7851C26.5175 11.5495 26.3547 11.4621 25.9177 11.4621C25.4601 11.4569 25.0827 11.5711 24.9275 11.6215C24.9373 11.5627 25.0573 10.8229 25.0573 10.8229C25.5233 10.6857 25.8309 10.6342 26.1765 10.6342C26.9801 10.6342 27.4055 10.9951 27.4045 11.6761C27.4061 11.8594 27.3759 12.0847 27.3287 12.3805C27.2479 12.8953 27.0731 13.9993 27.0497 14.2677ZM16.471 14.2138C16.2148 14.2945 16.0152 14.3295 15.799 14.3295C15.3208 14.3295 15.0598 14.0546 15.0598 13.5487C15.0532 13.3912 15.1288 12.9784 15.1882 12.6013C15.242 12.2688 15.5936 10.1757 15.5936 10.1757H16.5232L16.4148 10.7139H16.892L16.765 11.5677H16.2862C16.1782 12.2441 16.024 13.0854 16.0224 13.1972C16.0224 13.3811 16.1204 13.4604 16.3426 13.4604C16.4492 13.4604 16.5316 13.45 16.5948 13.4272L16.471 14.2138ZM19.3218 14.1855C19.0026 14.283 18.694 14.3301 18.3676 14.3295C17.3268 14.3285 16.7842 13.7849 16.7842 12.7439C16.7842 11.5285 17.4745 10.6343 18.4114 10.6343C19.178 10.6343 19.6676 11.1349 19.6676 11.9207C19.6676 12.1815 19.634 12.4359 19.5532 12.7949H17.7016C17.639 13.3104 17.969 13.5255 18.5098 13.5255C18.8425 13.5255 19.1428 13.4566 19.4764 13.301L19.3218 14.1855ZM18.799 12.0777C18.8046 12.0039 18.8978 11.4433 18.3664 11.4433C18.0704 11.4433 17.8586 11.6697 17.7724 12.0777H18.799ZM12.8749 11.8375C12.8749 12.287 13.0929 12.5967 13.5873 12.8299C13.966 13.0079 14.0246 13.0609 14.0246 13.2221C14.0246 13.4437 13.8575 13.5437 13.4877 13.5437C13.2085 13.5437 12.9489 13.5001 12.6493 13.4035C12.6493 13.4035 12.5267 14.1869 12.5211 14.2243C12.7333 14.2707 12.923 14.3131 13.4942 14.3295C14.4815 14.3295 14.9371 13.9537 14.9371 13.1417C14.9371 12.653 14.7465 12.3665 14.2777 12.1511C13.8856 11.9707 13.8403 11.9311 13.8403 11.7649C13.8403 11.5729 13.996 11.4741 14.2982 11.4741C14.4817 11.4741 14.7325 11.4943 14.9704 11.5281L15.1034 10.7035C14.8615 10.6651 14.4943 10.6343 14.2804 10.6343C13.2338 10.6343 12.8719 11.1805 12.8749 11.8375ZM32.0005 14.2677H31.1155L31.1595 13.9368C30.9028 14.2112 30.6399 14.3295 30.2971 14.3295C29.617 14.3295 29.1676 13.7432 29.1676 12.8547C29.1676 11.6724 29.8647 10.6758 30.6897 10.6758C31.0525 10.6758 31.3271 10.824 31.5827 11.1604L31.7903 9.89765H32.7129L32.0005 14.2677ZM30.6207 13.4465C31.0563 13.4465 31.3623 12.9529 31.3623 12.2487C31.3623 11.7973 31.1881 11.5523 30.8667 11.5523C30.4425 11.5523 30.1411 12.0475 30.1411 12.7463C30.1411 13.2112 30.3023 13.4465 30.6207 13.4465ZM27.8922 10.7139C27.7752 11.8139 27.5671 12.9281 27.4045 14.0289L27.3617 14.2677H28.2973C28.6319 12.0945 28.7128 11.6701 29.2375 11.7233C29.3211 11.2785 29.4766 10.8889 29.5926 10.6923C29.2008 10.6107 28.982 10.8321 28.6956 11.2527C28.7182 11.0709 28.7596 10.8943 28.7514 10.7139H27.8922ZM20.1921 10.7139C20.0747 11.8139 19.8666 12.9281 19.7041 14.0289L19.6615 14.2677H20.5975C20.9317 12.0945 21.0125 11.6701 21.5368 11.7233C21.6208 11.2785 21.7764 10.8889 21.892 10.6923C21.5006 10.6107 21.2816 10.8321 20.9954 11.2527C21.018 11.0709 21.059 10.8943 21.0512 10.7139H20.1921ZM32.4114 13.9895C32.4114 13.8352 32.536 13.7111 32.6896 13.7111C32.8431 13.7109 32.9677 13.8353 32.9678 13.9888V13.9895C32.9678 14.1431 32.8432 14.2676 32.6896 14.2677C32.536 14.2676 32.4115 14.1431 32.4114 13.9895ZM32.6896 14.2009C32.8064 14.2009 32.901 14.1063 32.901 13.9896V13.9895C32.9011 13.8727 32.8065 13.778 32.6898 13.7779H32.6896C32.5728 13.778 32.4781 13.8727 32.478 13.9895C32.4782 14.1063 32.5729 14.2009 32.6896 14.2009ZM32.652 14.1111H32.595V13.8671H32.6984C32.7198 13.8671 32.742 13.8675 32.7606 13.8793C32.7806 13.8929 32.792 13.9161 32.792 13.9404C32.792 13.968 32.7758 13.9938 32.7494 14.0036L32.7945 14.111H32.7312L32.6938 14.0146H32.652V14.111V14.1111ZM32.652 13.9729H32.6834C32.6952 13.9729 32.708 13.9737 32.7184 13.9681C32.7278 13.9621 32.7326 13.9507 32.7326 13.9399C32.7321 13.9298 32.727 13.9205 32.7188 13.9147C32.709 13.9091 32.6928 13.9107 32.6822 13.9107H32.652V13.9729H32.652Z" fill="white"/>
</g>
<defs>
<clipPath id="clip0">
<rect x="0.439941" width="37.44" height="24" fill="white"/>
</clipPath>
</defs>
</svg>

<svg width="38" height="24" fill="none" xmlns="http://www.w3.org/2000/svg"><g clip-path="url(#clip0)"><path d="M2.36 0h33.6c1.06 0 1.92.86 1.92 1.92v20.16c0 1.06-.86 1.92-1.92 1.92H2.36a1.92 1.92 0 01-1.92-1.92V1.92C.44.86 1.3 0 2.36 0z" fill="#16366F"/><path d="M21.992 12a8.616 8.616 0 01-8.616 8.616 8.616 8.616 0 010-17.232A8.617 8.617 0 0121.992 12z" fill="#D9222A"/><path d="M24.944 3.384a8.585 8.585 0 00-5.784 2.23 8.76 8.76 0 00-.87.912h1.74c.239.29.458.595.657.913h-3.054c-.184.293-.35.598-.497.912h4.047c.14.297.261.601.365.912h-4.776c-.1.3-.184.604-.25.913h5.276a8.66 8.66 0 01-.25 4.561h-4.777c.104.31.226.616.365.912h4.047a8.636 8.636 0 01-.496.913h-3.054c.199.318.419.623.656.912h1.74c-.267.325-.557.63-.87.912a8.616 8.616 0 105.784-15.002" fill="#EE9F2D"/><path d="M32.412 16.803a.278.278 0 11.556 0 .278.278 0 01-.556 0zm.278.212a.212.212 0 000-.424.211.211 0 000 .423zm-.038-.09h-.057v-.244h.104c.021 0 .043 0 .062.012.02.013.031.037.031.061a.067.067 0 01-.042.063l.045.108h-.063l-.038-.097h-.041v.097zm0-.139h.032c.012 0 .024.001.035-.004a.033.033 0 00.014-.028.03.03 0 00-.014-.025c-.01-.006-.026-.005-.036-.005h-.03v.063zm-21.288-3.843a1.574 1.574 0 00-.208-.014c-.53 0-.799.182-.799.54 0 .222.131.363.335.363.381 0 .656-.363.672-.889zm.68 1.584h-.774l.018-.368c-.237.291-.552.43-.98.43-.508 0-.856-.397-.856-.972 0-.865.605-1.37 1.643-1.37.106 0 .242.01.381.028a.87.87 0 00.037-.23c0-.236-.163-.324-.6-.324a3.1 3.1 0 00-.99.16l.13-.8c.465-.136.773-.188 1.119-.188.803 0 1.228.361 1.228 1.043.001.182-.029.408-.076.704-.081.515-.255 1.618-.28 1.887zm-2.983 0h-.935l.535-3.36-1.196 3.36h-.637l-.08-3.34-.562 3.34H5.31l.731-4.37h1.345l.082 2.446.82-2.446h1.496l-.723 4.37zm17.04-1.584a1.569 1.569 0 00-.21-.014c-.53 0-.798.182-.798.54 0 .222.131.363.335.363.381 0 .656-.363.672-.889zm.68 1.584h-.775l.017-.368c-.236.291-.552.43-.98.43-.507 0-.854-.397-.854-.972 0-.865.604-1.37 1.642-1.37.106 0 .242.01.38.028a.873.873 0 00.038-.23c0-.236-.163-.324-.6-.324a3.106 3.106 0 00-.99.16l.13-.8c.466-.136.773-.188 1.118-.188.804 0 1.23.361 1.229 1.043.001.182-.029.408-.076.704-.08.515-.255 1.618-.28 1.887zm-10.579-.054c-.256.08-.455.115-.672.115-.478 0-.739-.274-.739-.78-.007-.157.069-.57.128-.948.054-.332.406-2.425.406-2.425h.93l-.109.538h.562l-.127.854h-.564c-.108.676-.262 1.518-.263 1.63 0 .183.097.263.32.263.106 0 .189-.011.252-.034l-.124.787zm2.85-.029a3.17 3.17 0 01-.953.144c-1.041 0-1.584-.544-1.584-1.585 0-1.215.69-2.11 1.628-2.11.766 0 1.256.501 1.256 1.287 0 .26-.034.515-.115.874h-1.851c-.063.515.267.73.808.73a2.2 2.2 0 00.966-.224l-.154.884zm-.522-2.107c.005-.074.099-.634-.432-.634-.296 0-.508.226-.595.634h1.027zm-5.924-.24c0 .449.218.759.713.992.378.178.437.23.437.392 0 .222-.167.322-.537.322-.28 0-.539-.044-.838-.14l-.129.82c.213.047.402.09.974.105.987 0 1.442-.375 1.442-1.188 0-.488-.19-.775-.659-.99-.392-.18-.437-.22-.437-.386 0-.192.155-.29.458-.29.183 0 .434.02.672.053l.133-.824a6.341 6.341 0 00-.823-.07c-1.047 0-1.409.547-1.406 1.203zm10.996-1.11c.26 0 .503.068.836.236l.153-.949c-.137-.053-.62-.37-1.028-.37-.626 0-1.155.311-1.527.824-.543-.18-.766.184-1.04.546l-.243.056c.019-.119.035-.237.03-.357h-.86c-.117 1.1-.325 2.214-.487 3.315l-.043.24h.936c.156-1.016.242-1.665.294-2.105l.352-.196c.053-.196.218-.262.548-.254-.044.24-.067.484-.066.729 0 1.162.627 1.886 1.634 1.886.26 0 .482-.034.827-.127l.165-.997c-.31.153-.565.225-.795.225-.544 0-.873-.402-.873-1.065 0-.962.49-1.637 1.188-1.637z" fill="#000"/><path d="M9.33 14.268h-.936l.537-3.36-1.197 3.36h-.637l-.08-3.34-.562 3.34h-.876l.731-4.37h1.345l.038 2.705.908-2.705h1.452l-.723 4.37z" fill="#fff"/><path d="M31.52 10.157l-.206 1.263c-.256-.337-.531-.58-.894-.58-.472 0-.902.357-1.183.884-.391-.081-.796-.22-.796-.22v.004c.031-.294.044-.474.04-.535h-.858c-.117 1.1-.325 2.214-.488 3.316l-.043.238h.936c.126-.82.223-1.502.294-2.042.32-.289.48-.54.803-.524a3.046 3.046 0 00-.227 1.153c0 .888.45 1.475 1.13 1.475.343 0 .606-.119.862-.393l-.044.33h.885l.712-4.37h-.922zm-1.169 3.549c-.318 0-.48-.236-.48-.7 0-.7.302-1.195.726-1.195.322 0 .496.245.496.697 0 .704-.306 1.198-.742 1.198z" fill="#000"/><path d="M11.633 12.684a1.557 1.557 0 00-.208-.014c-.53 0-.799.182-.799.54 0 .222.131.363.335.363.381 0 .656-.363.672-.889zm.68 1.584h-.774l.017-.368c-.236.29-.552.43-.98.43-.507 0-.854-.396-.854-.972 0-.865.604-1.37 1.642-1.37.106 0 .242.01.38.028a.874.874 0 00.037-.23c0-.236-.162-.324-.6-.324a3.124 3.124 0 00-.99.16l.13-.8c.466-.136.774-.188 1.12-.188.803 0 1.228.361 1.228 1.042.001.183-.03.409-.076.704-.081.515-.256 1.62-.28 1.888zm12.547-4.253l-.153.95c-.334-.169-.576-.237-.836-.237-.698 0-1.188.675-1.188 1.637 0 .663.33 1.065.873 1.065.23 0 .485-.072.795-.225l-.165.996a2.916 2.916 0 01-.826.128c-1.007 0-1.635-.724-1.635-1.886 0-1.563.867-2.655 2.107-2.655.408 0 .89.173 1.028.227zm1.51 2.67a1.553 1.553 0 00-.21-.015c-.53 0-.798.182-.798.54 0 .222.131.363.335.363.381 0 .656-.363.672-.889zm.68 1.583h-.776l.018-.368c-.236.29-.552.43-.98.43-.507 0-.855-.396-.855-.972 0-.865.605-1.37 1.643-1.37.106 0 .242.01.38.028a.882.882 0 00.037-.23c0-.236-.162-.324-.6-.324a3.125 3.125 0 00-.99.16l.13-.8c.466-.136.774-.188 1.12-.188.803 0 1.229.361 1.227 1.042.002.183-.028.409-.075.704-.081.515-.256 1.62-.28 1.888zm-10.579-.054c-.256.08-.456.115-.672.115-.478 0-.74-.274-.74-.78-.006-.158.07-.57.13-.948.053-.332.405-2.425.405-2.425h.93l-.11.538h.478l-.127.854h-.479c-.108.676-.262 1.517-.264 1.63 0 .183.098.262.32.262.107 0 .19-.01.253-.033l-.124.787zm2.85-.029c-.318.098-.627.145-.953.144-1.041 0-1.584-.544-1.584-1.585 0-1.216.69-2.11 1.627-2.11.767 0 1.257.5 1.257 1.287 0 .26-.034.515-.115.874h-1.851c-.063.515.267.73.808.73.332 0 .633-.068.966-.224l-.154.884zm-.522-2.107c.006-.074.099-.635-.433-.635-.296 0-.507.227-.594.635H18.8zm-5.924-.24c0 .449.218.759.712.992.379.178.438.23.438.392 0 .222-.168.322-.537.322-.28 0-.54-.044-.839-.14l-.128.82c.212.047.402.09.973.105.988 0 1.443-.375 1.443-1.187 0-.489-.19-.775-.66-.99-.391-.181-.437-.22-.437-.387 0-.192.156-.29.458-.29.184 0 .434.02.672.053l.133-.825a6.332 6.332 0 00-.823-.069c-1.046 0-1.408.546-1.405 1.204zM32 14.268h-.885l.044-.331c-.257.274-.52.393-.863.393-.68 0-1.13-.587-1.13-1.475 0-1.183.698-2.18 1.523-2.18.362 0 .637.149.893.485l.207-1.262h.923L32 14.268zm-1.38-.822c.435 0 .741-.493.741-1.197 0-.452-.174-.697-.495-.697-.425 0-.726.495-.726 1.194 0 .465.161.7.48.7zm-2.729-2.732c-.117 1.1-.325 2.214-.488 3.315l-.042.239h.935c.335-2.174.416-2.598.94-2.545.084-.445.24-.834.356-1.03-.392-.082-.611.14-.897.56.022-.182.064-.359.055-.54h-.859zm-7.7 0c-.117 1.1-.325 2.214-.488 3.315l-.043.239h.936c.335-2.174.415-2.598.94-2.545.084-.445.24-.834.355-1.03-.391-.082-.61.14-.897.56.023-.182.064-.359.056-.54h-.859zm12.22 3.275a.278.278 0 11.556 0 .278.278 0 01-.557 0zm.278.212a.211.211 0 000-.423.212.212 0 000 .423zm-.038-.09h-.057v-.244h.103c.022 0 .044 0 .063.012.02.014.031.037.031.061a.067.067 0 01-.043.064l.045.107h-.063l-.037-.096h-.042v.096zm0-.138h.031c.012 0 .025 0 .035-.005a.033.033 0 00.015-.028c0-.01-.006-.02-.014-.025-.01-.006-.026-.004-.037-.004h-.03v.062z" fill="#fff"/></g><defs><clipPath id="clip0"><path fill="#fff" d="M.44 0h37.44v24H.44z"/></clipPath></defs></svg>
